stuff/config/qss/Default/imgs/black/checkpartially_disabled.svg

<?xml version="1.0" encoding="UTF-8" standalone="no"?><!DOCTYPE svg PUBLIC "-//W3C//DTD SVG 1.1//EN" "http://www.w3.org/Graphics/SVG/1.1/DTD/svg11.dtd"><svg width="11px" height="11px" viewBox="0 0 11 11" version="1.1" xmlns="http://www.w3.org/2000/svg" xmlns:xlink="http://www.w3.org/1999/xlink" xml:space="preserve" xmlns:serif="http://www.serif.com/" style="fill-rule:evenodd;clip-rule:evenodd;stroke-linejoin:round;stroke-miterlimit:2;"><path d="M9,3c0,-0.552 -0.448,-1 -1,-1l-5,0c-0.552,0 -1,0.448 -1,1l0,5c0,0.552 0.448,1 1,1l5,0c0.552,0 1,-0.448 1,-1l0,-5Z" style="fill:#fff;fill-opacity:0.5;"/></svg>

<?xml version="1.0" encoding="UTF-8" standalone="no"?>
<!DOCTYPE svg PUBLIC "-//W3C//DTD SVG 1.1//EN" "http://www.w3.org/Graphics/SVG/1.1/DTD/svg11.dtd">
<svg width="9px" height="9px" version="1.1" xmlns="http://www.w3.org/2000/svg" xmlns:xlink="http://www.w3.org/1999/xlink" xml:space="preserve" xmlns:serif="http://www.serif.com/" style="fill-rule:evenodd;clip-rule:evenodd;stroke-linejoin:round;stroke-miterlimit:2;">
    <g transform="matrix(1,0,0,1,-1,-1)">
        <path d="M9,3C9,2.448 8.552,2 8,2L3,2C2.448,2 2,2.448 2,3L2,8C2,8.552 2.448,9 3,9L8,9C8.552,9 9,8.552 9,8L9,3Z" style="fill:white;fill-opacity:0.5;"/>
    </g>
</svg>
